X: 1
T: Nick Randall's Jig
C: Bill Clement Oct 1999
R: jig
Z: 2010 John Chambers <jc:trillian.mit.edu>
S: image from Atsuko Clement
M: 6/8
L: 1/8
K: Hp
|: {g}A | {Gdc}d>ef {gef}e>dc | {g}B>cd {g}A3 | {ag}a3 {fg}f3 | {g}e>fg {fg}f2{g}A |
y4   | {Gdc}d>ef {gef}e>dc | {g}B>cd {g}A3 | {ag}a3 {fg}f3 | {g}A>Bc {Gdc}d2 :|
|: A | {gfg}f2d {gef}e2B | {gde}d>cB {g}A3 | {gBd}B2d {g}A2d | {gfg}f>ed {gef}e2{g}A |
y4   | {gfg}f2d {gef}e2B | {gde}d>cB {g}A3 | {ag}a3 {fg}f3 | {g}A>Bc {Gdc}d2 :|
